boxicons/svg/solid/bxs-arrow-to-right.svg

<svg xmlns="http://www.w3.org/2000/svg" width="24" height="24" viewBox="0 0 24 24"><path d="M18 6h2v12h-2zm-8 5H4v2h6v5l6-6-6-6z"/></svg>

<svg xmlns="http://www.w3.org/2000/svg" width="24" height="24" viewBox="0 0 24 24"><path d="M18 6H20V18H18zM10 11L4 11 4 13 10 13 10 18 16 12 10 6z"/></svg>
